!!!!SEGMENT: pl-sa--l-1643--102_anonim--magnificat-do-magnifi-cat-wirsz-beatam-me-dicent-omnes.krn
!!!cenid: 16xx:1464
!!!COM: Anonim
!!!COM-rismID: pe30004985
!!!CDT:
!!!CNT:
!!!OTL: Magnificat [Do Magnifi cat wirsz]/Beatam me dicent omnes
!!!PDT:
!!!AGN: Sacred
!!!SMS-siglum: PL-SA
!!!SMS-shelfmark: L 1643
!!!SMS-shelfwork: 102 W
!!!SMS-variant:
!!!SMS-altvar:
!!!NIFC-rismSourceID: 1001063295
!!!NIFC-rismChildID: 1001063295
!!!NIFC-islandoraID:
!!!URL-pdf-islandora:
!!!URL-scan:
!!!ONB-nifc: UWAGA: 8 ksiąg. Primi chori: 1mus Cantus (37, ostatnia pięciolinia, „Beatam me...”), C 2dus (99), C 3tius (x), Bassus (31); Secondi chori: Primus Cantus (x), C 2dus (x), Altus (x), Bassus (x). UWAGA: Nie dodawać pustych linii, chyba że w rękopisie pojawiają się dodatkowe oznaczenia dotyczące pełnej obsady (a 4, a 8 itp.)
!!!AIN: 3 empty
!!!key:
**kern	**text	**kern	**text	**kern	**text
*part3	*part3	*part2	*part2	*part1	*part1
*staff3	*staff3	*staff2	*staff2	*staff1	*staff1
*Iempty	*	*Iempty	*	*Iempty	*
*I"Bassus Primi Chori	*	*I"Cantus 2dus Primi Chori	*	*I"1mus Cantus Primi Chori	*
*I'B Ch 1	*	*I'C 2 Ch 1	*	*I'C 1 Ch 1	*
*clefC3	*	*clefC1	*	*clefG2	*
*k[b-]	*	*k[b-]	*	*k[b-]	*
*f:	*	*f:	*	*f:	*
*M2/2	*	*M2/2	*	*M2/2	*
=1-	=1-	=1-	=1-	=1-	=1-
2f\	Be-	2a\	Be-	2.dd\	Be-
2d\	-a-	2a\	-a-	.	.
.	.	.	.	4ee\	-a-
=2-	=2-	=2-	=2-	=2-	=2-
2B-/	-tam	2b-\	-tam	2ff\	-tam
2B-/	me	2b-\	me	2ff\	me
=3-	=3-	=3-	=3-	=3-	=3-
1c\	dy-	2.g/	di-	1cc\	dy-
.	.	4a\	.	.	.
=4-	=4-	=4-	=4-	=4-	=4-
2B-/	-cent	2b-,\	-cent	2dd\	-cent
1f\	om-	1a\	om-	1ff\	om-
=5-	=5-	=5-	=5-	=5-	=5-
2e\	-neſ	2g,/	-nes	2cc\	-neſ
=6-	=6-	=6-	=6-	=6-	=6-
2f\	ge-	2cc\	ge-	2cc\	ge-
2f\	-ne-	2cc\	-ne-	2cc\	-ne-
=7-	=7-	=7-	=7-	=7-	=7-
2d\	-ra-	2dd\	-ra-	2ff\	-ra-
2d\	-ti-	2dd\	-ti-	2ff\	-ti-
=8-	=8-	=8-	=8-	=8-	=8-
1g\	-o-	1b-\	-o-	2.dd\	-o-
.	.	.	.	4ee\	.
=9-	=9-	=9-	=9-	=9-	=9-
2f,\	-neſ	2cc,\	-nes	2ff\	-neſ
2f\	ge-	2cc\	ge-	2ff\	ge-
=10-	=10-	=10-	=10-	=10-	=10-
1c\	-ne-	1cc\	.	1ee\	-ne-
=11-	=11-	=11-	=11-	=11-	=11-
2.d\	-ra-	2.a\	-ne-	2dd\	-ra-
.	.	.	.	4a/	-ti-
4d\	-ti-	8g/L	-ra-	4b-/	.
.	.	8f/J	.	.	.
=12-	=12-	=12-	=12-	=12-	=12-
0c\	-o-	2e/	-ti-	0cc\	-o-
.	.	2.f/	.	.	.
=13-	=13-	=13-	=13-	=13-	=13-
.	.	8e/L	.	.	.
.	.	8d/J	.	.	.
.	.	2e/	-o-	.	.
=14-	=14-	=14-	=14-	=14-	=14-
0F/	-neſ	0f/	-nes;	0cc\	-neſ,
==-	==-	==-	==-	==-	==-
*-	*-	*-	*-	*-	*-
!!!system-decoration: [(s1,s2,s3)]
!!!ENC: Andrzej Gręziak
!!!END: 2021-11-03
!!!ENC: Leszek Kubiak
!!!END: 2021-11-09
!!!YEC: Copyright 2022 Narodowy Instytut Fryderyka Chopina (https://polishscores.org)
!!!YEM: License CC-BY-4.0 (https://creativecommons.org/licenses/by/4.0)
